packages/ffe-icons/icons/open/300/md/remember_me.svg

<svg xmlns="http://www.w3.org/2000/svg" height="24" viewBox="0 -960 960 960" width="24"><path d="M292.309-60.002q-29.827 0-51.067-21.24-21.241-21.24-21.241-51.067v-695.382q0-29.827 21.241-51.067 21.24-21.241 51.067-21.241h375.382q29.827 0 51.067 21.241 21.241 21.24 21.241 51.067v695.382q0 29.827-21.241 51.067-21.24 21.24-51.067 21.24H292.309ZM280-170v37.692q0 5.385 3.462 8.847 3.462 3.462 8.847 3.462h375.382q5.385 0 8.847-3.462 3.462-3.462 3.462-8.847v-37.692H280Zm0-619.998h400v-37.692q0-5.385-3.462-8.847-3.462-3.462-8.847-3.462H292.309q-5.385 0-8.847 3.462-3.462 3.462-3.462 8.847v37.692Zm200 449.998q-54 0-105 15.5t-95 44.5v50.002h400v-50.002q-44-29-95-44.5t-105-15.5ZM480-400q54 0 104.5 13.101t95.5 37.207v-380.309H280v380.309q45-24.106 95.5-37.207Q426-400 480-400Zm-.045-50.001q45.814 0 77.929-32.07t32.115-77.884q0-45.814-32.07-77.929t-77.884-32.115q-45.814 0-77.929 32.07t-32.115 77.884q0 45.814 32.07 77.929t77.884 32.115Zm.045-59.998q-20.846 0-35.424-14.577-14.577-14.578-14.577-35.424t14.577-35.424q14.578-14.577 35.424-14.577t35.424 14.577q14.577 14.578 14.577 35.424t-14.577 35.424Q500.846-509.999 480-509.999Zm0 280h200-400 200ZM480-560Zm0-229.999Zm0 619.998Z"/></svg>

<svg xmlns="http://www.w3.org/2000/svg" height="24" viewBox="0 -960 960 960" width="24"><path d="M292.31-60q-29.83 0-51.07-21.24Q220-102.48 220-132.31v-695.38q0-29.83 21.24-51.07Q262.48-900 292.31-900h375.38q29.83 0 51.07 21.24Q740-857.52 740-827.69v695.38q0 29.83-21.24 51.07Q697.52-60 667.69-60H292.31ZM280-170v37.69q0 5.39 3.46 8.85t8.85 3.46h375.38q5.39 0 8.85-3.46t3.46-8.85V-170H280Zm0-620h400v-37.69q0-5.39-3.46-8.85t-8.85-3.46H292.31q-5.39 0-8.85 3.46t-3.46 8.85V-790Zm200 450q-54 0-105 15.5T280-280v50h400v-50q-44-29-95-44.5T480-340Zm0-60q54 0 104.5 13.1t95.5 37.21V-730H280v380.31q45-24.11 95.5-37.21Q426-400 480-400Zm-.05-50q45.82 0 77.93-32.07Q590-514.14 590-559.95q0-45.82-32.07-77.93Q525.86-670 480.05-670q-45.82 0-77.93 32.07Q370-605.86 370-560.05q0 45.82 32.07 77.93Q434.14-450 479.95-450Zm.05-60q-20.85 0-35.42-14.58Q430-539.15 430-560t14.58-35.42Q459.15-610 480-610t35.42 14.58Q530-580.85 530-560t-14.58 35.42Q500.85-510 480-510Zm0 280h200-400 200Zm0-330Zm0-230Zm0 620Z"/></svg>
